svg/water_remove_outline.svg

<svg xmlns="http://www.w3.org/2000/svg" viewBox="0 0 24 24"><path d="M12 18c0 .7.12 1.36.34 2H12c-3.31 0-6-2.69-6-6 0-4 6-10.75 6-10.75S16.31 8.1 17.62 12c-.69.06-1.34.22-1.95.47C15 10.68 13.5 8.33 12 6.39 10 8.96 8 12.23 8 14c0 2.21 1.79 4 4 4m9.54-2.12-1.41-1.41L18 16.59l-2.12-2.12-1.41 1.41L16.59 18l-2.12 2.12 1.41 1.41L18 19.41l2.12 2.12 1.41-1.41L19.41 18z"/></svg>

<?xml version="1.0" encoding="UTF-8"?><!DOCTYPE svg PUBLIC "-//W3C//DTD SVG 1.1//EN" "http://www.w3.org/Graphics/SVG/1.1/DTD/svg11.dtd"><svg xmlns="http://www.w3.org/2000/svg" xmlns:xlink="http://www.w3.org/1999/xlink" version="1.1" id="mdi-water-remove-outline" width="24" height="24" viewBox="0 0 24 24"><path d="M12 18C12 18.7 12.12 19.36 12.34 20C12.23 20 12.12 20 12 20C8.69 20 6 17.31 6 14C6 10 12 3.25 12 3.25S16.31 8.1 17.62 12C16.93 12.06 16.28 12.22 15.67 12.47C15 10.68 13.5 8.33 12 6.39C10 8.96 8 12.23 8 14C8 16.21 9.79 18 12 18M21.54 15.88L20.13 14.47L18 16.59L15.88 14.47L14.47 15.88L16.59 18L14.47 20.12L15.88 21.53L18 19.41L20.12 21.53L21.53 20.12L19.41 18L21.54 15.88Z" /></svg>
